;FLAVOR:Marlin
;TIME:2594
;Filament used: 1.34084m
;Layer height: 0.2
;MINX:65.132
;MINY:34.675
;MINZ:0.2
;MAXX:147.499
;MAXY:82.577
;MAXZ:9
;Generated with Cura_SteamEngine 5.4.0
M140 S58
M105
M190 S58
M104 S220
M105
M109 S220
M82 ;absolute extrusion mode
; Ender 3 Custom Start G-code
G92 E0 ; Reset Extruder
G28 ; Home all axes
G1 Z2.0 F3000 ; Move Z Axis up little to prevent scratching of Heat Bed
G1 X0.1 Y20 Z0.3 F5000.0 ; Move to start position
G1 X0.1 Y200.0 Z0.3 F1500.0 E15 ; Draw the first line
G1 X0.4 Y200.0 Z0.3 F5000.0 ; Move to side a little
G1 X0.4 Y20 Z0.3 F1500.0 E30 ; Draw the second line
G92 E0 ; Reset Extruder
G1 Z2.0 F3000 ; Move Z Axis up little to prevent scratching of Heat Bed
G1 X5 Y20 Z0.3 F5000.0 ; Move over to prevent blob squish
G92 E0
G92 E0
G1 F2700 E-5
;LAYER_COUNT:45
;LAYER:0
M107
G0 F6000 X72.408 Y37.698 Z0.2
;TYPE:SKIRT
G1 F2700 E0
G1 F1200 X73.972 Y36.236 E0.07121
G1 X75.861 Y35.11 E0.14435
G1 X76.144 Y35.008 E0.15436
G1 X77.897 Y34.735 E0.21336
G1 X87.559 Y34.675 E0.53473
G1 X89.174 Y35.067 E0.59
G1 X89.415 Y35.039 E0.59807
G1 X98.866 Y34.998 E0.91242
G1 X100.706 Y35.447 E0.97541
G1 X101.213 Y35.71 E0.99441
G1 X109.994 Y35.679 E1.28647
G1 X111.896 Y36.146 E1.35161
G1 X113.041 Y36.739 E1.3945
G1 X121.483 Y36.712 E1.67528
G1 X123.379 Y37.178 E1.74022
G1 X125.407 Y38.231 E1.81622
G1 X126.866 Y39.792 E1.88729
G1 X128.073 Y41.815 E1.96564
G1 X128.355 Y43.533 E2.02354
G1 X128.424 Y56.681 E2.46085
G1 X129.303 Y58.152 E2.51785
G1 X129.388 Y57.852 E2.52822
G1 X130.42 Y55.865 E2.60269
G1 X131.999 Y54.388 E2.6746
G1 X133.593 Y53.445 E2.7362
G1 X134.341 Y53.141 E2.76306
G1 X136 Y52.891 E2.81886
G1 X140.578 Y52.84 E2.97113
G1 X142.403 Y53.287 E3.03362
G1 X144.476 Y54.359 E3.11125
G1 X145.935 Y55.922 E3.18236
G1 X147.142 Y57.945 E3.26071
G1 X147.424 Y59.663 E3.31862
G1 X147.499 Y74.489 E3.81174
G1 X147.032 Y76.392 E3.87691
G1 X145.98 Y78.419 E3.95287
G1 X144.419 Y79.878 E4.02394
G1 X142.396 Y81.085 E4.10229
G1 X140.678 Y81.367 E4.16019
G1 X125.85 Y81.442 E4.65338
G1 X125.203 Y81.283 E4.67554
G1 X124.732 Y81.567 E4.69383
G1 X123 Y81.851 E4.75221
G1 X108.174 Y81.926 E5.24533
G1 X106.242 Y81.452 E5.31149
G1 X106.056 Y81.526 E5.31815
G1 X104.486 Y81.784 E5.37107
G1 X89.654 Y81.859 E5.86439
G1 X89.356 Y81.786 E5.8746
G1 X88.633 Y82.218 E5.90261
G1 X86.925 Y82.502 E5.9602
G1 X72.09 Y82.577 E6.45362
G1 X70.187 Y82.11 E6.51879
G1 X68.16 Y81.058 E6.59475
G1 X66.687 Y79.482 E6.66649
G1 X65.719 Y77.826 E6.73029
G1 X65.431 Y77.101 E6.75624
G1 X65.173 Y75.304 E6.81662
G1 X65.132 Y71.913 E6.92941
G1 X65.582 Y70.074 E6.99238
G1 X66.655 Y68.002 E7.06999
G1 X68.226 Y66.534 E7.14151
G1 X70.041 Y65.453 E7.21177
G1 X70.378 Y65.315 E7.22388
G1 X72.268 Y65.029 E7.28746
G1 X76.139 Y65.004 E7.41621
G1 X76.139 Y62.858 E7.48759
G1 X75.899 Y62.788 E7.4959
G1 X73.912 Y61.756 E7.57037
G1 X72.453 Y60.195 E7.64144
G1 X71.246 Y58.172 E7.71979
G1 X70.964 Y56.454 E7.77769
G1 X70.889 Y41.628 E8.27082
G1 X71.356 Y39.725 E8.33599
G1 X72.408 Y37.698 E8.41195
G0 F6000 X72.731 Y37.943
G1 F1200 X74.211 Y36.56 E8.47932
G1 X76.066 Y35.454 E8.55115
G1 X76.207 Y35.403 E8.55614
G1 X77.899 Y35.135 E8.61311
G1 X87.511 Y35.075 E8.93282
G1 X89.152 Y35.474 E8.98899
G1 X89.417 Y35.439 E8.99788
G1 X98.817 Y35.398 E9.31052
G1 X100.567 Y35.825 E9.37044
G1 X101.117 Y36.11 E9.39104
G1 X109.949 Y36.079 E9.6848
G1 X111.753 Y36.522 E9.74658
G1 X112.944 Y37.139 E9.79119
G1 X121.437 Y37.112 E10.07367
G1 X123.236 Y37.554 E10.13529
G1 X125.162 Y38.554 E10.20747
G1 X126.542 Y40.031 E10.2747
G1 X127.69 Y41.955 E10.34922
G1 X127.96 Y43.598 E10.40459
G1 X128.025 Y56.791 E10.8434
G1 X128.964 Y58.363 E10.9043
G1 X129.102 Y58.699 E10.91638
G1 X129.301 Y60.005 E10.96032
G1 X129.313 Y59.786 E10.96762
G1 X129.743 Y58.036 E11.02756
G1 X130.743 Y56.11 E11.09973
G1 X132.238 Y54.712 E11.16781
G1 X133.744 Y53.816 E11.2261
G1 X134.448 Y53.53 E11.25137
G1 X136.06 Y53.287 E11.30559
G1 X140.53 Y53.241 E11.45427
G1 X142.264 Y53.665 E11.51364
G1 X144.231 Y54.683 E11.58731
G1 X145.611 Y56.161 E11.65456
G1 X146.759 Y58.085 E11.72908
G1 X147.029 Y59.728 E11.78446
G1 X147.099 Y74.444 E12.27392
G1 X146.656 Y76.249 E12.33574
G1 X145.657 Y78.174 E12.40787
G1 X144.18 Y79.554 E12.4751
G1 X142.256 Y80.702 E12.54962
G1 X140.613 Y80.972 E12.605
G1 X125.895 Y81.042 E13.09453
G1 X125.137 Y80.856 E13.12049
G1 X124.592 Y81.184 E13.14165
G1 X122.935 Y81.456 E13.1975
G1 X108.219 Y81.526 E13.68696
G1 X106.462 Y81.095 E13.74713
G1 X106.259 Y81.003 E13.75454
G1 X105.991 Y81.131 E13.76442
G1 X104.421 Y81.389 E13.81734
G1 X89.699 Y81.459 E14.307
G1 X89.292 Y81.359 E14.32094
G1 X88.495 Y81.835 E14.35181
G1 X86.859 Y82.107 E14.40697
G1 X72.135 Y82.177 E14.8967
G1 X70.33 Y81.734 E14.95852
G1 X68.405 Y80.735 E15.03065
G1 X67.011 Y79.244 E15.09854
G1 X66.091 Y77.678 E15.15895
G1 X65.82 Y76.997 E15.18333
G1 X65.573 Y75.299 E15.2404
G1 X65.533 Y71.96 E15.35146
G1 X65.96 Y70.213 E15.41128
G1 X66.979 Y68.247 E15.48493
G1 X68.465 Y66.858 E15.55258
G1 X70.246 Y65.797 E15.62153
G1 X70.489 Y65.702 E15.63021
G1 X72.271 Y65.429 E15.69017
G1 X76.539 Y65.401 E15.83213
G1 X76.539 Y62.545 E15.92712
G1 X76.083 Y62.433 E15.94274
G1 X74.157 Y61.433 E16.01492
G1 X72.777 Y59.956 E16.08215
G1 X71.629 Y58.032 E16.15667
G1 X71.359 Y56.389 E16.21205
G1 X71.289 Y41.673 E16.70151
G1 X71.732 Y39.868 E16.76332
G1 X72.731 Y37.943 E16.83546
G0 F6000 X73.054 Y38.188
G1 F1200 X74.45 Y36.884 E16.89899
G1 X76.271 Y35.798 E16.96951
G1 X77.902 Y35.535 E17.02446
G1 X87.463 Y35.475 E17.34247
G1 X88.957 Y35.839 E17.39361
G1 X89.086 Y35.887 E17.39819
G1 X89.47 Y35.836 E17.41107
G1 X98.768 Y35.798 E17.72033
G1 X100.428 Y36.203 E17.77716
G1 X101.021 Y36.51 E17.79937
G1 X109.904 Y36.479 E18.09482
G1 X111.61 Y36.898 E18.15325
G1 X112.848 Y37.539 E18.19962
G1 X121.39 Y37.512 E18.48373
G1 X123.094 Y37.931 E18.54209
G1 X124.917 Y38.877 E18.6104
G1 X126.221 Y40.273 E18.67394
G1 X127.307 Y42.093 E18.74443
G1 X127.565 Y43.663 E18.79735
G1 X127.626 Y56.926 E19.23848
G1 X127.693 Y57.013 E19.24214
G1 X128.62 Y58.568 E19.30235
G1 X128.715 Y58.811 E19.31103
G1 X128.976 Y60.525 E19.36869
G1 X128.996 Y63.66 E19.47296
G1 X129.701 Y63.658 E19.49641
G1 X129.701 Y59.882 E19.622
G1 X130.12 Y58.178 E19.68037
G1 X131.066 Y56.355 E19.74868
G1 X132.477 Y55.036 E19.81292
G1 X133.949 Y54.16 E19.86989
G1 X134.55 Y53.92 E19.89141
G1 X136.12 Y53.683 E19.94423
G1 X140.482 Y53.642 E20.08931
G1 X142.125 Y54.043 E20.14556
G1 X143.986 Y55.007 E20.21527
G1 X145.29 Y56.403 E20.27881
G1 X146.376 Y58.223 E20.3493
G1 X146.634 Y59.793 E20.40222
G1 X146.699 Y74.399 E20.88802
G1 X146.28 Y76.106 E20.94648
G1 X145.334 Y77.929 E21.01479
G1 X143.938 Y79.233 E21.07833
G1 X142.118 Y80.319 E21.14882
G1 X140.548 Y80.577 E21.20174
G1 X125.94 Y80.642 E21.68761
G1 X125.071 Y80.429 E21.71737
G1 X124.452 Y80.801 E21.74139
G1 X122.87 Y81.061 E21.79471
G1 X108.264 Y81.126 E22.28051
G1 X106.557 Y80.707 E22.33897
G1 X106.245 Y80.545 E22.35066
G1 X105.926 Y80.736 E22.36303
G1 X104.356 Y80.994 E22.41595
G1 X89.745 Y81.059 E22.90192
G1 X89.228 Y80.931 E22.91963
G1 X88.357 Y81.452 E22.95339
G1 X86.793 Y81.712 E23.00612
G1 X72.18 Y81.777 E23.49216
G1 X70.473 Y81.358 E23.55062
G1 X68.65 Y80.412 E23.61893
G1 X67.335 Y79.005 E23.68298
G1 X66.436 Y77.475 E23.742
G1 X66.209 Y76.893 E23.76278
G1 X65.973 Y75.294 E23.81654
G1 X65.934 Y72.007 E23.92588
G1 X66.338 Y70.352 E23.98254
G1 X67.302 Y68.492 E24.05222
G1 X68.704 Y67.182 E24.11603
G1 X70.451 Y66.141 E24.18367
G1 X70.594 Y66.09 E24.18872
G1 X72.274 Y65.829 E24.24527
G1 X76.939 Y65.798 E24.40043
G1 X76.939 Y62.232 E24.51904
G1 X76.226 Y62.057 E24.54346
G1 X74.402 Y61.11 E24.61181
G1 X73.098 Y59.714 E24.67535
G1 X72.012 Y57.894 E24.74584
G1 X71.754 Y56.324 E24.79876
G1 X71.689 Y41.718 E25.28456
G1 X72.108 Y40.011 E25.34302
G1 X73.054 Y38.188 E25.41133
G0 F6000 X73.377 Y38.433
G1 F1200 X74.692 Y37.205 E25.47118
G1 X76.408 Y36.181 E25.53764
G1 X77.905 Y35.935 E25.5881
G1 X87.414 Y35.875 E25.90437
G1 X88.862 Y36.228 E25.95395
G1 X89.036 Y36.297 E25.96017
G1 X89.522 Y36.233 E25.97647
G1 X98.719 Y36.198 E26.28237
G1 X100.289 Y36.581 E26.33612
G1 X100.925 Y36.91 E26.35994
G1 X109.859 Y36.879 E26.65708
G1 X111.467 Y37.274 E26.71216
G1 X112.752 Y37.939 E26.76028
G1 X121.344 Y37.912 E27.04605
G1 X122.951 Y38.307 E27.10109
G1 X124.672 Y39.2 E27.16558
G1 X125.9 Y40.515 E27.22542
G1 X126.924 Y42.231 E27.29189
G1 X127.17 Y43.728 E27.34234
G1 X127.227 Y57.07 E27.78611
G1 X127.349 Y57.218 E27.79248
G1 X128.276 Y58.773 E27.8527
G1 X128.327 Y58.916 E27.85775
G1 X128.576 Y60.528 E27.912
G1 X128.599 Y64.062 E28.02954
G1 X130.101 Y64.056 E28.0795
G1 X130.101 Y59.928 E28.2168
G1 X130.496 Y58.321 E28.27184
G1 X131.389 Y56.6 E28.33632
G1 X132.716 Y55.36 E28.39673
G1 X134.154 Y54.504 E28.45239
G1 X134.654 Y54.309 E28.47024
G1 X136.18 Y54.079 E28.52157
G1 X140.434 Y54.042 E28.66306
G1 X141.986 Y54.421 E28.7162
G1 X143.741 Y55.33 E28.78194
G1 X144.969 Y56.645 E28.84178
G1 X145.993 Y58.361 E28.90824
G1 X146.239 Y59.858 E28.9587
G1 X146.299 Y74.354 E29.44084
G1 X145.904 Y75.963 E29.49595
G1 X145.011 Y77.684 E29.56044
G1 X143.696 Y78.912 E29.62028
G1 X141.98 Y79.936 E29.68674
G1 X140.483 Y80.182 E29.7372
G1 X125.985 Y80.242 E30.21941
G1 X125.004 Y80.001 E30.25301
G1 X124.311 Y80.419 E30.27993
G1 X122.805 Y80.666 E30.33069
G1 X108.309 Y80.726 E30.81283
G1 X106.7 Y80.331 E30.86793
G1 X106.231 Y80.088 E30.8855
G1 X105.788 Y80.353 E30.90267
G1 X104.291 Y80.599 E30.95313
G1 X89.792 Y80.659 E31.43537
G1 X89.164 Y80.504 E31.45689
G1 X88.219 Y81.069 E31.49351
G1 X86.727 Y81.317 E31.54381
G1 X72.225 Y81.377 E32.02615
G1 X70.616 Y80.982 E32.08126
G1 X68.895 Y80.089 E32.14575
G1 X67.656 Y78.763 E32.20611
G1 X66.809 Y77.329 E32.2615
G1 X66.598 Y76.789 E32.28078
G1 X66.373 Y75.289 E32.33123
G1 X66.335 Y72.054 E32.43884
G1 X66.716 Y70.491 E32.49234
G1 X67.625 Y68.737 E32.55805
G1 X68.943 Y67.506 E32.61803
G1 X70.656 Y66.485 E32.68436
G1 X72.277 Y66.229 E32.73894
G1 X77.339 Y66.195 E32.90731
G1 X77.339 Y61.919 E33.04953
G1 X76.369 Y61.681 E33.08275
G1 X74.647 Y60.787 E33.14728
G1 X73.419 Y59.472 E33.20712
G1 X72.395 Y57.756 E33.27359
G1 X72.149 Y56.259 E33.32405
G1 X72.089 Y41.763 E33.80619
G1 X72.484 Y40.154 E33.86129
G1 X73.377 Y38.433 E33.92578
G0 F6000 X73.7 Y38.678
G1 F1200 X74.934 Y37.526 E33.98193
G1 X76.546 Y36.564 E34.04437
G1 X77.97 Y36.33 E34.09236
G1 X87.365 Y36.275 E34.40485
G1 X88.767 Y36.617 E34.45285
G1 X88.98 Y36.708 E34.46055
G1 X89.524 Y36.633 E34.47882
G1 X98.67 Y36.598 E34.78302
G1 X100.15 Y36.959 E34.83368
G1 X100.829 Y37.31 E34.85911
G1 X109.814 Y37.279 E35.15795
G1 X111.324 Y37.65 E35.20967
G1 X112.656 Y38.339 E35.25955
G1 X121.298 Y38.312 E35.54698
G1 X122.808 Y38.683 E35.5987
G1 X124.427 Y39.523 E35.65936
G1 X125.579 Y40.757 E35.71551
G1 X126.541 Y42.369 E35.77795
G1 X126.775 Y43.793 E35.82594
G1 X126.828 Y57.22 E36.27253
G1 X127.005 Y57.423 E36.28149
G1 X127.932 Y58.978 E36.3417
G1 X128.176 Y60.531 E36.39399
G1 X128.202 Y64.463 E36.52477
G1 X130.501 Y64.455 E36.60124
G1 X130.501 Y59.974 E36.75027
G1 X130.872 Y58.464 E36.80199
G1 X131.712 Y56.845 E36.86266
G1 X132.955 Y55.684 E36.91923
G1 X134.359 Y54.848 E36.97358
G1 X134.754 Y54.699 E36.98762
G1 X136.24 Y54.475 E37.0376
G1 X140.386 Y54.442 E37.1755
G1 X141.847 Y54.799 E37.22552
G1 X143.496 Y55.653 E37.28729
G1 X144.648 Y56.887 E37.34344
G1 X145.61 Y58.499 E37.40587
G1 X145.844 Y59.923 E37.45387
G1 X145.899 Y74.309 E37.93235
G1 X145.528 Y75.82 E37.9841
G1 X144.688 Y77.439 E38.04477
G1 X143.454 Y78.591 E38.10092
G1 X141.842 Y79.553 E38.16335
G1 X140.418 Y79.787 E38.21135
G1 X126.03 Y79.842 E38.6899
G1 X124.938 Y79.574 E38.7273
G1 X124.171 Y80.036 E38.75708
G1 X122.74 Y80.271 E38.80531
G1 X108.354 Y80.326 E39.2838
G1 X106.843 Y79.955 E39.33554
G1 X106.218 Y79.631 E39.35896
G1 X105.65 Y79.97 E39.38096
G1 X104.226 Y80.204 E39.42896
G1 X89.839 Y80.259 E39.90748
G1 X89.1 Y80.077 E39.93279
G1 X88.081 Y80.686 E39.97227
G1 X86.661 Y80.922 E40.02015
G1 X72.27 Y80.977 E40.4988
G1 X70.759 Y80.606 E40.55055
G1 X69.14 Y79.766 E40.61121
G1 X67.979 Y78.523 E40.66778
G1 X67.182 Y77.183 E40.71964
G1 X66.987 Y76.684 E40.73746
G1 X66.769 Y75.23 E40.78636
G1 X66.736 Y72.101 E40.89044
G1 X67.094 Y70.63 E40.94079
G1 X67.948 Y68.982 E41.00253
G1 X69.182 Y67.83 E41.05867
G1 X70.795 Y66.868 E41.12114
G1 X72.28 Y66.629 E41.17117
G1 X77.739 Y66.592 E41.35274
G1 X77.739 Y61.606 E41.51857
G1 X76.511 Y61.304 E41.56063
G1 X74.892 Y60.464 E41.6213
G1 X73.74 Y59.23 E41.67745
G1 X72.778 Y57.618 E41.73988
G1 X72.544 Y56.194 E41.78788
G1 X72.489 Y41.808 E42.26636
G1 X72.86 Y40.297 E42.31811
G1 X73.7 Y38.678 E42.37878
G0 F6000 X74.023 Y38.923
G1 F1200 X75.176 Y37.847 E42.43123
G1 X76.684 Y36.947 E42.48964
G1 X78.035 Y36.725 E42.53518
G1 X87.316 Y36.675 E42.84387
G1 X88.672 Y37.006 E42.89029
G1 X88.919 Y37.121 E42.89936
G1 X89.526 Y37.033 E42.91976
G1 X98.621 Y36.998 E43.22226
G1 X100.011 Y37.337 E43.26985
G1 X100.733 Y37.71 E43.29688
G1 X109.767 Y37.679 E43.59735
G1 X111.182 Y38.027 E43.64582
G1 X112.56 Y38.739 E43.6974
G1 X121.251 Y38.712 E43.98647
G1 X122.666 Y39.06 E44.03493
G1 X124.182 Y39.846 E44.09173
G1 X125.258 Y40.999 E44.14419
G1 X126.158 Y42.507 E44.2026
G1 X126.38 Y43.858 E44.24813
G1 X126.429 Y57.379 E44.69785
G1 X126.661 Y57.628 E44.70916
G1 X127.549 Y59.118 E44.76686
G1 X127.776 Y60.534 E44.81455
G1 X127.805 Y64.865 E44.95861
G1 X130.901 Y64.853 E45.06158
G1 X130.901 Y60.021 E45.22229
G1 X131.249 Y58.606 E45.27076
G1 X132.035 Y57.09 E45.32756
G1 X133.194 Y56.008 E45.38029
G1 X134.564 Y55.192 E45.43333
G1 X134.853 Y55.089 E45.44353
G1 X136.3 Y54.871 E45.4922
G1 X140.338 Y54.842 E45.62651
G1 X141.708 Y55.177 E45.67342
G1 X143.251 Y55.976 E45.73121
G1 X144.327 Y57.129 E45.78367
G1 X145.227 Y58.637 E45.84208
G1 X145.449 Y59.988 E45.88761
G1 X145.499 Y74.263 E46.3624
G1 X145.151 Y75.678 E46.41087
G1 X144.365 Y77.194 E46.46767
G1 X143.212 Y78.27 E46.52012
G1 X141.704 Y79.17 E46.57853
G1 X140.353 Y79.392 E46.62407
G1 X126.076 Y79.442 E47.09893
G1 X124.873 Y79.146 E47.14013
G1 X124.031 Y79.653 E47.17282
G1 X122.675 Y79.876 E47.21853
G1 X108.4 Y79.926 E47.69332
G1 X106.985 Y79.578 E47.74178
G1 X106.204 Y79.174 E47.77103
G1 X105.512 Y79.587 E47.79783
G1 X104.161 Y79.809 E47.84337
G1 X89.886 Y79.859 E48.31816
G1 X89.036 Y79.65 E48.34728
G1 X87.943 Y80.303 E48.38962
G1 X86.595 Y80.527 E48.43507
G1 X72.316 Y80.577 E48.91
G1 X70.901 Y80.229 E48.95846
G1 X69.385 Y79.443 E49.01526
G1 X68.303 Y78.284 E49.06799
G1 X67.526 Y76.978 E49.11854
G1 X67.377 Y76.583 E49.13258
G1 X67.165 Y75.171 E49.18007
G1 X67.137 Y72.148 E49.28062
G1 X67.472 Y70.77 E49.32779
G1 X68.271 Y69.227 E49.38558
G1 X69.424 Y68.151 E49.43803
G1 X70.932 Y67.251 E49.49644
G1 X72.283 Y67.029 E49.54198
G1 X78.139 Y66.989 E49.73676
G1 X78.139 Y61.293 E49.92621
G1 X76.653 Y60.927 E49.97711
G1 X75.137 Y60.141 E50.0339
G1 X74.061 Y58.988 E50.08636
G1 X73.161 Y57.48 E50.14477
G1 X72.939 Y56.129 E50.1903
G1 X72.889 Y41.854 E50.6651
G1 X73.237 Y40.439 E50.71356
G1 X74.023 Y38.923 E50.77036
G0 F6000 X74.346 Y39.168
G1 F1200 X75.418 Y38.168 E50.81912
G1 X76.822 Y37.33 E50.8735
G1 X78.1 Y37.12 E50.91658
G1 X87.267 Y37.075 E51.22148
G1 X88.577 Y37.395 E51.26633
G1 X88.85 Y37.536 E51.27655
G1 X89.528 Y37.433 E51.29936
G1 X98.572 Y37.398 E51.60016
G1 X99.874 Y37.716 E51.64474
G1 X100.657 Y38.12 E51.67405
G1 X100.812 Y38.104 E51.67923
G1 X109.721 Y38.079 E51.97554
G1 X111.039 Y38.403 E52.02069
G1 X112.266 Y39.037 E52.06662
G1 X112.404 Y39.139 E52.07233
G1 X121.205 Y39.112 E52.36505
G1 X122.523 Y39.436 E52.4102
G1 X123.937 Y40.169 E52.46317
